!!!OTL: ALS ICH DICH ZUM ERSTENMAL ERBLICKTE
!!!ARE: Europa, Mitteleuropa, Deutschland, Westerwald
!!!SCT: B0401A
!!!YEM: Copyright 1995, estate of Helmut Schaffrath.
**kern
*ICvox
*Ivox
*M4/4
*k[b-e-a-]
*E-:
{8.B-
16B-
=1
4.g
8g
8a-
8g
8a-
8cc
=2
4b-
4g
4r}
{8.b-
16ee-
=3
4.cc
8b-
8cc
8bn
8a-
8g
=4
2f
4r}
{8.cc
16b-
=5
4.b-
8a-
8f
8g
8a-
8cc
=6
4b-
4g
4r}
{8.b-
16g
=7
8g
8f
8a-
8f
4e-
4f
=8
2g
4r}
{8.cc
16b-
=9
4.b-
8a-
8f
8g
8a-
8cc
=10
4b-
4g
4r}
{8.b-
16g
=11
8g
8f
8a-
8f
4e-
4f
=12
2e-
4r}
==
!!!AGN: Liebes - Lied, Liebes - Lust
!!!ONB: ESAC (Essen Associative Code) Database: BOEHME
!!!AMT: simple quadruple
!!!AIN: vox
!!!EED: Helmut Schaffrath
!!!EEV: 1.0
*-
